public/assets/profile_images/linkedin.svg

<?xml version="1.0" encoding="utf-8"?>
<svg width="16px" height="16px" viewBox="0 0 16 16" version="1.1" xmlns:xlink="http://www.w3.org/1999/xlink" xmlns="http://www.w3.org/2000/svg">
  <defs>
    <path d="M0 0L16 0L16 16L0 16L0 0Z" id="path_1" />
    <clipPath id="clip_1">
      <use xlink:href="#path_1" />
    </clipPath>
  </defs>
  <g id="linkedin" clip-path="url(#clip_1)">
    <path d="M0 0L16 0L16 16L0 16L0 0Z" id="linkedin" fill="none" fill-rule="evenodd" stroke="none" />
    <path d="M3 3.04495L13 3.04495L13 13.045L3 13.045L3 3.04495Z" id="Rectangle" fill="#FFFFFF" fill-rule="evenodd" stroke="none" />
    <path d="M12.225 12.225L10.447 12.225L10.447 9.44C10.447 8.776 10.435 7.921 9.522 7.921C8.596 7.921 8.454 8.645 8.454 9.391L8.454 12.225L6.676 12.225L6.676 6.498L8.383 6.498L8.383 7.281L8.407 7.281C8.755 6.687 9.403 6.331 10.091 6.356C11.893 6.356 12.226 7.541 12.226 9.084L12.225 12.224L12.225 12.225ZM4.67 5.715C4.10157 5.71227 3.64128 5.25243 3.638 4.684C3.638 4.118 4.104 3.652 4.67 3.652C5.236 3.652 5.701 4.118 5.702 4.684C5.702 5.25 5.236 5.716 4.67 5.716L4.67 5.715ZM5.559 12.225L3.779 12.225L3.779 6.498L5.559 6.498L5.559 12.225L5.559 12.225ZM13.11 2L2.885 2C2.40246 1.9972 2.00767 2.38351 2 2.866L2 13.134C2.00767 13.6165 2.40246 14.0028 2.885 14L13.111 14C13.5947 14.0039 13.9912 13.6176 14 13.134L14 2.865C13.9912 2.38172 13.5943 1.99598 13.111 2.001L13.11 2Z" id="SVGRepo_iconCarrier" fill="#0A66C2" fill-rule="evenodd" stroke="none" />
  </g>
</svg>

<svg viewBox="0 0 16 16" xmlns="http://www.w3.org/2000/svg" fill="none">
    <g id="SVGRepo_bgCarrier" stroke-width="0"></g>
    <g id="SVGRepo_tracerCarrier" stroke-linecap="round" stroke-linejoin="round"></g>
    <g id="SVGRepo_iconCarrier">
        <path fill="#0A66C2"
            d="M12.225 12.225h-1.778V9.44c0-.664-.012-1.519-.925-1.519-.926 0-1.068.724-1.068 1.47v2.834H6.676V6.498h1.707v.783h.024c.348-.594.996-.95 1.684-.925 1.802 0 2.135 1.185 2.135 2.728l-.001 3.14zM4.67 5.715a1.037 1.037 0 01-1.032-1.031c0-.566.466-1.032 1.032-1.032.566 0 1.031.466 1.032 1.032 0 .566-.466 1.032-1.032 1.032zm.889 6.51h-1.78V6.498h1.78v5.727zM13.11 2H2.885A.88.88 0 002 2.866v10.268a.88.88 0 00.885.866h10.226a.882.882 0 00.889-.866V2.865a.88.88 0 00-.889-.864z"></path>
    </g>
</svg>
